icons/person-arrow-up-outline.svg

<svg xmlns="http://www.w3.org/2000/svg" width="24" height="24" viewBox="0 0 24 24">
  <path d="M10.4676228,16.0003645 L11.0076763,16.0057544 C14.4141691,16.0682088 15.80903,16.6867426 15.9842893,19.0917479 L15.9953786,19.2802927 L16,19.5 L16,20.5 C16,20.7383924 15.9971539,20.817813 15.9690676,20.9648045 C15.9064905,21.2923056 15.7318635,21.5826456 15.4244325,21.7746571 C15.1451825,21.9490675 14.9786076,21.9883117 14.4919729,21.9973073 L14,22 L4,22 L3.65107363,21.9952256 C2.49782794,21.9601842 2.04900063,21.7156474 2.0039004,20.7255244 L2.00017148,20.5789484 L2,19.5 C2,16.7811217 3.40027757,16.074116 6.99322939,16.0059404 L7.53477183,16.0003645 L10.4676228,16.0003645 Z M7.53716646,18.0003616 C4.63739326,18.0073055 4.03538181,18.220675 4.00155904,19.3876232 L3.99999999,19.4998411 L3.999,20 L14,20 L14.0002452,19.5221452 L13.9966548,19.3478329 C13.9474604,18.265257 13.4009903,18.0221242 10.7281847,18.0016669 L7.53716646,18.0003616 Z M9,6 C11.209139,6 13,7.790861 13,10 C13,12.209139 11.209139,14 9,14 C6.790861,14 5,12.209139 5,10 C5,7.790861 6.790861,6 9,6 Z M9,8 C7.8954305,8 7,8.8954305 7,10 C7,11.1045695 7.8954305,12 9,12 C10.1045695,12 11,11.1045695 11,10 C11,8.8954305 10.1045695,8 9,8 Z M18,2 L18.019,2.001 L18.03,2.001 L18.081,2.003 L18.1489612,2.01101934 L18.1489612,2.01101934 C18.165949,2.01362808 18.1833753,2.01670217 18.2007258,2.02024007 C18.2227461,2.0246398 18.2444365,2.02983363 18.2658396,2.03572097 C18.2814633,2.04009773 18.2968513,2.04472872 18.3121425,2.04973809 C18.3317977,2.05612249 18.3515792,2.06331574 18.3710585,2.07110396 L18.4232215,2.09367336 L18.4232215,2.09367336 C18.4438914,2.10337664 18.4642939,2.11379392 18.484277,2.12487577 C18.4963944,2.13149883 18.5086131,2.13860692 18.5207088,2.14599545 C18.546275,2.1617187 18.5711307,2.17849009 18.5951593,2.19631351 C18.6012086,2.20071786 18.6070733,2.20517454 18.6128994,2.20970461 C18.6196628,2.21507113 18.6225624,2.2173721 18.625449,2.21968877 L18.7071068,2.29289322 L21.7071068,5.29289322 C22.0976311,5.68341751 22.0976311,6.31658249 21.7071068,6.70710678 C21.3466228,7.06759074 20.7793918,7.09532028 20.3871006,6.79029539 L20.2928932,6.70710678 L19,5.415 L19,9 C19,9.55228475 18.5522847,10 18,10 C17.4871642,10 17.0644928,9.61395981 17.0067277,9.11662113 L17,9 L17,5.415 L15.7071068,6.70710678 C15.3165825,7.09763107 14.6834175,7.09763107 14.2928932,6.70710678 C13.9324093,6.34662282 13.9046797,5.77939176 14.2097046,5.38710056 L14.2928932,5.29289322 L17.2928932,2.29289322 L17.37,2.224 L17.38,2.215 L17.4046934,2.19633458 L17.4046934,2.19633458 C17.4288693,2.17849009 17.453725,2.1617187 17.4793398,2.14606743 L17.5159379,2.12467117 L17.5159379,2.12467117 C17.5357061,2.11379392 17.5561086,2.10337664 17.5769009,2.09365378 L17.628664,2.07122549 L17.628664,2.07122549 C17.6484208,2.06331574 17.6682023,2.05612249 17.6882636,2.04954668 C17.7031487,2.04472872 17.7185367,2.04009773 17.734007,2.03584514 C17.7555635,2.02983363 17.7772539,2.0246398 17.7992059,2.02016515 C17.8166247,2.01670217 17.834051,2.01362808 17.8515331,2.0110178 L17.909968,2.00399798 L17.909968,2.00399798 C17.9208131,2.00307004 17.9308872,2.00232561 17.9409686,2.0017331 L17.980824,2.00018018 L18,2 L18,2 Z"/>
</svg>

<svg xmlns="http://www.w3.org/2000/svg" viewBox="0 0 24 24">
  <path d="M10.47 16H11c3.4.07 4.8.69 4.97 3.1l.02.18v1.22c0 .24 0 .32-.03.46a1.2 1.2 0 0 1-.55.81c-.27.18-.44.22-.93.23H3.65c-1.15-.04-1.6-.28-1.65-1.27V19.5c0-2.72 1.4-3.43 5-3.5h3.46zm-2.93 2c-2.9 0-3.5.22-3.54 1.39V20h10v-.65c-.05-1.08-.6-1.33-3.27-1.35h-3.2zM9 6a4 4 0 1 1 0 8 4 4 0 0 1 0-8zm0 2a2 2 0 1 0 0 4 2 2 0 0 0 0-4zm9-6h.08l.07.01a1.08 1.08 0 0 1 .22.06l.05.02a1.02 1.02 0 0 1 .2.13l.09.07 3 3a1 1 0 0 1-1.32 1.5l-.1-.08L19 5.4V9a1 1 0 0 1-2 .12v-3.7L15.7 6.7a1 1 0 0 1-1.49-1.32l.08-.1 3-3 .08-.07h.01l.02-.02.08-.05.04-.03.06-.03.05-.02a.99.99 0 0 1 .22-.06h.09l.04-.01H18z"/>
</svg>
